X:2660
T:Hot Springs
O:england
M:4/4
L:1/8
Q:180
S:Transcription of Jimmy Don Bates, Weiser 1997 by LLarry Brandon
K:F
ce|f2 fg fecA|cdcA FcAG|ECEd cAEC|DEFG Acdc|
faga fdcA|cdcA Fcdc|ECEd cAEC| F2 (G/2F/2E/2) F3 c|
f2 fg fecA|cdcA FCDF|EAGF ECDE|FGAc dcde|
faga fdcA|cdcA Fcdc|ECEd cAEC|F2 (G/2F/2E/2) F3 (F/2E/2D/2)||
A,DDC DCA,C|DCDE FE F2|AcAG FAGF|ECED ECDC|
A,DDC DCA,C|A,CDE FcAG|FDEC DCED|A,C D2 D4|
"4"D2 "4"D2 DEDC|A,CDE F3 F|"4"A2 d2 A2 d2|A_AGF GFDC|
A,CDC DEDC|A,CDE FEFG|AFGE FDEC|A,CDE FGAc||
faga fdcA|cdcA FcAF|EC E A2 G EC|DEFG Acde|
f2 eg fdcA|cdcA FCDF|EdcA ECDE|F2 (G/2F/2E/2) F3 c|
f2 eg fdcA|cdcA FcAF|EC E A2 G EC|DEFG Acde|
fc'ag fdcA|cfdc AdcA|FEFd cAEC|F2 (G/2F/2E/2) F3 (F/2E/2D/3)||
D d3 cdc Ac|dcde fdeg|a3 f gfge|fagf egfe|
d2 d cdc Ac|dcde fdeg|afge fded|A2 a2 a4|
d4 dcAd|dcde fdeg|a2 fa (g/2a/2g/2) eg|faga f (cdc)|
Acdc dcAc|dcde fdfg|afge fded|cGAB cdec||
f2 fg fecA|cdcA FcAG|ECEd cAEC|DEFG Acdc|
faga fdcA|cdcA Fcdc|ECEd cAEC|F2 (G/2F/2E/2) F4|
aaga fcdc|Fdc[FA] [FA] c dc|ECEd cAEC|FEFG ABce|
f2 eg fdcA|cdcA FAGF|ECEd cAEC|F2 (G/2F/2E/2) F3 (D/2C/2B,/2)||
A, D2 C DCA,C|DCDE FEFG|A2 FA FAGF|EDEC DCA,C|
A,CDC DCA,C|DCDE FEFG|AFGE FDEC|A,C D2 D4|
DDDE DCA,C|DCDE FEFG|A2 A2 A2 A2|AGFD GFDC|
A,CDD DEDC|A,CDE FEFG|AFGE FDEC|A,CFG Acde||
fefg fdcA|cdcA FcAG|ECEd cAEC|A,CFG Acde|
f2 fg fecA|cdcA FCDF|EdcA ECEG|[F2A2] [C2F2] [D4F4]||


